X:1
T:Torn Jacket, The
R:reel
C:Connie O'Connell
D:Declan Masterson: Tropical Trad
Z:id:hn-reel-448
M:C|
K:D
~F3A dfed|cA~A2 (3Bcd ed|AF~F2 dfed|cAGE EDDE|
~F3A dfed|cA~A2 (3Bcd ec|dcde fded|cAGE EDDE:|
|:FAdf ~a3f|~g3f gfed|cA~A2 (3Bcd ef|gfed cAGE|
FAdf ~a3f|~g3f gfef|gaba gfed|cAGE EDDE:|

